resources/haticons/SVG/medical_services.svg

<!-- Generated by IcoMoon.io -->
<svg version="1.1" xmlns="http://www.w3.org/2000/svg" width="24" height="24" viewBox="0 0 24 24">
<title>medical_services</title>
<path d="M20.016 6h-4.031v-2.016q0-0.797-0.586-1.383t-1.383-0.586h-4.031q-0.797 0-1.383 0.586t-0.586 1.383v2.016h-4.031q-0.797 0-1.383 0.586t-0.586 1.43v12q0 0.797 0.586 1.383t1.383 0.586h16.031q0.797 0 1.383-0.586t0.586-1.383v-12q0-0.844-0.586-1.43t-1.383-0.586zM9.984 3.984h4.031v2.016h-4.031v-2.016zM15.984 15h-3v3h-1.969v-3h-3v-2.016h3v-3h1.969v3h3v2.016z"></path>
</svg>

<svg xmlns="http://www.w3.org/2000/svg" width="24" height="24"><path d="M20.016 6h-4.031V3.984q0-.797-.586-1.383t-1.383-.586H9.985q-.797 0-1.383.586t-.586 1.383V6H3.985q-.797 0-1.383.586t-.586 1.43v12q0 .797.586 1.383t1.383.586h16.031q.797 0 1.383-.586t.586-1.383v-12q0-.844-.586-1.43T20.016 6zM9.984 3.984h4.031V6H9.984V3.984zm6 11.016h-3v3h-1.969v-3h-3v-2.016h3v-3h1.969v3h3V15z"/></svg>
